(5MM OUTLINE V2)
(T1 D=5. CR=0. - ZMIN=0. - FLAT END MILL)
G90 G94 G91.1 G40 G49 G17
G21
G28 G91 Z0.
G90

(2D CONTOUR1)
T1 M6
S5000 M3
G17 G90 G94
G54
G0 X0.5 Y-29.
G43 Z10. H1
G0 Z4.
G1 Z2. F333.
Z0.5
G19 G3 Y-28.5 Z0. J0.5 K0. F1000.
G1 Y-28.
G17 G3 X0. Y-27.5 I-0.5 J0.
G2 Y27.5 I0. J27.5
Y-27.5 I0. J-27.5
G3 X-0.5 Y-28. I0. J-0.5
G1 Y-28.5
G19 G2 Y-29. Z0.5 J0. K0.5
G0 Z10.
G17

M5
G28 G91 Z0.
G90
G28 G91 X0. Y0.
G90
M30
