(CIRCEL TEST)
(T1 D=3. CR=0. - ZMIN=-5.2 - FLAT END MILL)
G90 G94 G91.1 G40 G49 G17
G21
G28 G91 Z0.
G90

(BORE2)
T1 M6
S12000 M3
G17 G90 G94
G54
G0 X22.25 Y40.3
G43 Z7. H1
G0 Z2.
G1 Z0.3 F1220.
G18 G3 X21.95 Z0. I-0.3 K0.
G1 X21.8
G17 G3 X21.5 Y40. I0. J-0.3
X28.5 Z-0.5 I3.5 J0.
X21.5 Z-1. I-3.5 J0.
X28.5 Z-1.5 I3.5 J0.
X21.5 Z-2. I-3.5 J0.
X28.5 Z-2.5 I3.5 J0.
X21.5 Z-3. I-3.5 J0.
X28.5 Z-3.5 I3.5 J0.
X21.5 Z-4. I-3.5 J0.
X28.5 Z-4.5 I3.5 J0.
X21.5 Z-5. I-3.5 J0.
X23.918 Y36.671 Z-5.2 I3.5 J0.
X26.082 Y43.329 I1.082 J3.329
X23.918 Y36.671 I-1.082 J-3.329
X24.296 Y36.864 I0.093 J0.285
G1 X24.343 Y37.007
X24.363 Y37.07 Z-5.192
X24.383 Y37.13 Z-5.17
X24.401 Y37.184 Z-5.135
X24.415 Y37.23 Z-5.087
X24.426 Y37.264 Z-5.03
X24.433 Y37.285 Z-4.967
X24.436 Y37.292 Z-4.9
G0 Z2.
X9.26 Y17.8
G1 Z0.3 F1220.
G18 G3 X8.96 Z0. I-0.3 K0.
G1 X8.81
G17 G3 X8.51 Y17.5 I0. J-0.3
X15.51 Z-0.5 I3.5 J0.
X8.51 Z-1. I-3.5 J0.
X15.51 Z-1.5 I3.5 J0.
X8.51 Z-2. I-3.5 J0.
X15.51 Z-2.5 I3.5 J0.
X8.51 Z-3. I-3.5 J0.
X15.51 Z-3.5 I3.5 J0.
X8.51 Z-4. I-3.5 J0.
X15.51 Z-4.5 I3.5 J0.
X8.51 Z-5. I-3.5 J0.
X10.928 Y14.171 Z-5.2 I3.5 J0.
X13.091 Y20.829 I1.082 J3.329
X10.928 Y14.171 I-1.082 J-3.329
X11.306 Y14.364 I0.093 J0.285
G1 X11.352 Y14.507
X11.373 Y14.57 Z-5.192
X11.393 Y14.63 Z-5.17
X11.41 Y14.684 Z-5.135
X11.425 Y14.73 Z-5.087
X11.436 Y14.764 Z-5.03
X11.443 Y14.785 Z-4.967
X11.445 Y14.792 Z-4.9
G0 Z2.
X35.24 Y17.8
G1 Z0.3 F1220.
G18 G3 X34.94 Z0. I-0.3 K0.
G1 X34.79
G17 G3 X34.49 Y17.5 I0. J-0.3
X41.49 Z-0.5 I3.5 J0.
X34.49 Z-1. I-3.5 J0.
X41.49 Z-1.5 I3.5 J0.
X34.49 Z-2. I-3.5 J0.
X41.49 Z-2.5 I3.5 J0.
X34.49 Z-3. I-3.5 J0.
X41.49 Z-3.5 I3.5 J0.
X34.49 Z-4. I-3.5 J0.
X41.49 Z-4.5 I3.5 J0.
X34.49 Z-5. I-3.5 J0.
X36.909 Y14.171 Z-5.2 I3.5 J0.
X39.072 Y20.829 I1.082 J3.329
X36.909 Y14.171 I-1.082 J-3.329
X37.287 Y14.364 I0.093 J0.285
G1 X37.333 Y14.507
X37.354 Y14.57 Z-5.192
X37.373 Y14.63 Z-5.17
X37.391 Y14.684 Z-5.135
X37.406 Y14.73 Z-5.087
X37.417 Y14.764 Z-5.03
X37.424 Y14.785 Z-4.967
X37.426 Y14.792 Z-4.9
G0 Z7.

(2D CONTOUR1)
G0 Z10.
X25. Y-1.5
Z10.
Z2.
G1 Z1. F407.
G2 Y51.5 Z0.5 I0. J26.5 F1220.
Y-1.5 Z0. I0. J-26.5
Y51.5 Z-0.5 I0. J26.5
Y-1.5 Z-1. I0. J-26.5
Y51.5 I0. J26.5
Y-1.5 I0. J-26.5
Y51.5 Z-1.5 I0. J26.5
Y-1.5 Z-2. I0. J-26.5
Y51.5 I0. J26.5
Y-1.5 I0. J-26.5
Y51.5 Z-2.5 I0. J26.5
Y-1.5 Z-3. I0. J-26.5
Y51.5 I0. J26.5
Y-1.5 I0. J-26.5
Y51.5 Z-3.5 I0. J26.5
Y-1.5 Z-4. I0. J-26.5
Y51.5 I0. J26.5
Y-1.5 I0. J-26.5
Y51.5 Z-4.5 I0. J26.5
X35.567 Y49.302 Z-4.565 I0. J-26.5
G1 Z-4.45
G2 X40.763 Y46.302 I-10.567 J-24.302
G1 Z-4.6 F407.
G2 Y3.698 I-15.763 J-21.302 F1220.
G1 Z-4.45
G2 X35.567 Y0.698 I-15.763 J21.302
G1 Z-4.6 F407.
G2 X-1.33 Y22. I-10.567 J24.302 F1220.
G1 Z-4.45
G2 Y28. I26.33 J3.
G1 Z-4.6 F407.
G2 X35.567 Y49.302 I26.33 J-3. F1220.
G1 Z-4.45
G2 X40.763 Y46.302 I-10.567 J-24.302
G1 Z-4.601 F407.
G2 Y3.698 Z-4.899 I-15.763 J-21.302 F1220.
G1 Z-4.45
G2 X35.567 Y0.698 I-15.763 J21.302
G1 Z-4.935 F407.
G2 X-0.203 Y16.811 Z-5.2 I-10.567 J24.302 F1220.
X-1.33 Y22. I25.203 J8.189
G1 Z-4.45
G2 Y28. I26.33 J3.
G1 Z-5.2 F407.
G2 X35.567 Y49.302 I26.33 J-3. F1220.
G1 Z-4.45
G2 X40.763 Y46.302 I-10.567 J-24.302
G1 Z-5.2 F407.
G2 Y3.698 I-15.763 J-21.302 F1220.
G1 Z-4.45
G2 X35.567 Y0.698 I-15.763 J21.302
G1 Z-5.2 F407.
G2 X-0.203 Y16.811 I-10.567 J24.302 F1220.
G0 Z10.

M5
G28 G91 Z0.
G90
G28 G91 X0. Y0.
G90
M30
